packages/kaspersky-hexa-ui-icons/src/iconsSVGs/24/Present.svg

<svg width="24" height="24" viewBox="0 0 24 24" fill="none" xmlns="http://www.w3.org/2000/svg">
<path d="M12 4.59019C11.4343 3.59666 10.6776 2.86705 9.82388 2.42806C8.20957 1.59793 6.2507 1.86679 5.17539 3.43438C4.65241 4.19679 4.25225 5.68998 5.30597 7.0001H5C3.89543 7.0001 3 7.89553 3 9.0001V11.0001C3 11.7472 3.40961 12.3986 4.01651 12.742C4.00562 12.8265 4 12.9126 4 13.0001V20.0001C4 21.1047 4.89543 22.0001 6 22.0001H18C19.1046 22.0001 20 21.1047 20 20.0001V13.0001C20 12.9126 19.9944 12.8265 19.9835 12.742C20.5904 12.3986 21 11.7472 21 11.0001V9.0001C21 7.89553 20.1046 7.0001 19 7.0001H18.694C19.7477 5.68998 19.3476 4.19679 18.8246 3.43438C17.7493 1.86679 15.7904 1.59793 14.1761 2.42806C13.3224 2.86705 12.5657 3.59666 12 4.59019ZM8.90926 4.20668C9.62986 4.57723 10.4212 5.43972 10.8096 6.96738C8.25581 6.81918 7.23692 6.19871 6.87518 5.75983C6.53026 5.34136 6.62786 4.8526 6.82466 4.56572C7.22681 3.97946 8.01794 3.74833 8.90926 4.20668ZM13 20.0001V13.0001H18V20.0001H13ZM11 13.0001V20.0001H6V13.0001H11ZM13 11.0001V9.0001H19V11.0001H13ZM11 9.0001V11.0001H5V9.0001H11ZM17.1753 4.56572C17.3721 4.8526 17.4697 5.34136 17.1248 5.75983C16.7631 6.19871 15.7442 6.81918 13.1904 6.96738C13.5788 5.43972 14.3701 4.57723 15.0907 4.20668C15.9821 3.74833 16.7732 3.97946 17.1753 4.56572Z" fill="black"/>
</svg>

<svg xmlns="http://www.w3.org/2000/svg" width="24" height="24" fill="none" viewBox="0 0 24 24"><path fill="#000" fill-rule="evenodd" d="M12 4.5902c-.5657-.9935-1.3224-1.7232-2.1761-2.1621-1.6143-.8302-3.5732-.5613-4.6485 1.0063C4.6524 4.1968 4.2523 5.69 5.306 7H5c-1.1046 0-2 .8954-2 2v2c0 .7471.4096 1.3985 1.0165 1.7419A2 2 0 0 0 4 13.0001v7c0 1.1046.8954 2 2 2h12c1.1046 0 2-.8954 2-2v-7q0-.1313-.0165-.2581C20.5904 12.3986 21 11.7472 21 11.0001v-2c0-1.1046-.8954-2-2-2h-.306c1.0537-1.3101.6536-2.8033.1306-3.5657-1.0753-1.5676-3.0342-1.8365-4.6485-1.0063-.8537.439-1.6104 1.1686-2.1761 2.162m-3.0907-.3835c.7206.3705 1.5119 1.233 1.9003 2.7607-2.5538-.1482-3.5727-.7687-3.9344-1.2076-.345-.4184-.2473-.9072-.0505-1.194.4021-.5863 1.1932-.8175 2.0846-.3591M13 20v-7h5v7zm-2-7v7H6v-7zm2-2V9h6v2zm-2-2v2H5V9zm6.1753-4.4344c.1968.2869.2944.7757-.0505 1.1941-.3617.439-1.3806 1.0594-3.9344 1.2076.3884-1.5277 1.1797-2.3902 1.9003-2.7607.8914-.4584 1.6825-.2272 2.0846.359"/></svg>
